X:774
M:C|
L:1/8
K:G
~gage dedB|~gage agab|~gage degb|afgd B/B/B B2|~gage dedB|
~gage agab|gbeg degb|afgd B/B/B B2||

